img/svg/contacts/эцп.svg

<svg width="28" height="28" viewBox="0 0 28 28" fill="none" xmlns="http://www.w3.org/2000/svg">
<path d="M12.3854 6.88735L8.67135 3.77051C8.55073 3.66928 8.39483 3.62012 8.23796 3.63383C8.08108 3.64755 7.93608 3.72302 7.83486 3.84365L2.92722 9.69169C2.82599 9.81231 2.77683 9.96821 2.79054 10.1251C2.80426 10.282 2.87973 10.427 3.00036 10.5282L6.71445 13.645L6.30441 14.1336L6.30428 14.1338C6.13999 14.3299 6.06021 14.5832 6.08244 14.838C6.10468 15.0929 6.22712 15.3285 6.42289 15.4932L6.42312 15.4934L15.4936 23.1053L15.4938 23.1055C16.358 23.829 17.4738 24.1803 18.5966 24.0821C19.7194 23.984 20.7573 23.4444 21.4828 22.5819L21.483 22.5817L23.7495 19.881L23.7497 19.8807C24.4732 19.0166 24.8244 17.9007 24.7262 16.778C24.628 15.6552 24.0885 14.6172 23.226 13.8917L23.2257 13.8916L14.1552 6.27967L14.155 6.27947C13.9588 6.11526 13.7055 6.03559 13.4507 6.05791C13.1958 6.08024 12.9603 6.20276 12.7956 6.39857L12.7955 6.39874L12.3854 6.88735ZM4.21853 10.0002L8.36281 5.06182L11.6221 7.79699L7.47781 12.7354L4.21853 10.0002ZM7.35679 14.7267L13.5622 7.33223L22.4622 14.801C23.0839 15.3239 23.4728 16.0721 23.5435 16.8814C23.6143 17.6906 23.3612 18.4949 22.8397 19.1178L20.5736 21.8181C20.0506 22.4398 19.3025 22.8287 18.4932 22.8994C17.684 22.9702 16.8797 22.7171 16.2569 22.1956L7.35679 14.7267Z" fill="#FBFBFB" stroke="#FBFBFB" stroke-width="0.5"/>
</svg>

<svg width="28" height="28" fill="none" xmlns="http://www.w3.org/2000/svg"><path d="M12.385 6.887L8.671 3.771a.594.594 0 00-.836.073L2.927 9.692a.594.594 0 00.073.836l3.714 3.117-.41.489h0a.966.966 0 00.119 1.36h0l9.07 7.611h0a4.256 4.256 0 005.99-.523h0l2.267-2.701h0a4.256 4.256 0 00-.524-5.99h0l-9.07-7.611h-.001a.966.966 0 00-1.36.119h0l-.41.488zM4.22 10l4.144-4.938 3.26 2.735-4.145 4.938L4.218 10zm3.138 4.727l6.205-7.395 8.9 7.469a3.067 3.067 0 01.378 4.317l-2.266 2.7a3.067 3.067 0 01-4.317.378l-8.9-7.47z" fill="#FBFBFB" stroke="#FBFBFB" stroke-width=".5"/></svg>
